X: 25331
T: Manorhamilton The 8th Of May
R: jig
M: 6/8
K: Ddorian
D3 AGE|EDD AGE|D3 AGE|DCA, C2 E|
D3 AGE|GAB cde|dcA cAG|EGC D3:|
Add c2A|dcA cAB|AEE cAB|AGE DEG|
Add c2A|AGE DCG,|CEG cGE|AGE D3:|

